resources/svg/cafeteria.svg

<svg xmlns="http://www.w3.org/2000/svg" viewBox="0 0 24 24" fill="currentColor"><path fill="none" stroke="currentColor" stroke-width="2" d="M12,1 L12,7.99967027 C12,9.65670662 10.6526091,11 9.00313032,11 L5.99686968,11 C4.34174426,11 3,9.6513555 3,7.99967027 L3,1 M6,7 C6,7 6,6.54902482 6,6.00922203 L6,1 M9,7 C9,7 9,6.54902482 9,6.00922203 L9,1 M6,11 L6,21.5044548 C6,22.3304216 6.66579723,23 7.5,23 L7.5,23 C8.32842712,23 9,22.3204455 9,21.5044548 L9,11 M15,18 L15,21.4998351 C15,22.3283533 15.6657972,23 16.5,23 L16.5,23 C17.3284271,23 18,22.3316845 18,21.4952612 L18,15 C18,15 21,15 21,12 C21,9 21,10 21,7 C21,4 19,2 15,2 C15,2 15,9.99456145 15,18 L15,18 Z"/></svg>

<svg viewBox="0 0 24 24"><path fill="none" stroke="currentColor" stroke-width="2" d="M12 1v7c0 1.657-1.347 3-2.997 3H5.997A3.002 3.002 0 0 1 3 8V1m3 6V1m3 6V1M6 11v10.504C6 22.33 6.666 23 7.5 23h0c.828 0 1.5-.68 1.5-1.496V11m6 7v3.5c0 .828.666 1.5 1.5 1.5h0c.828 0 1.5-.668 1.5-1.505V15s3 0 3-3V7c0-3-2-5-6-5v16h0z"/></svg>
